X: 103
M: C
L: 1/8
K: G
V: 1
d |\
gd-de dB-Bd | e/f/g dc/B/ {B}A3d |\
gd-de dc/B/ e/f/g | dBcA G3 :|
|: B |\
(B/^c/d) (e/f/g) (f/e/d) (c/B/A) | (f/a/f/d/) (e/g/e/^c/) d3 :|
V: 2 clef=bass middle=d
z | gabc' bg-gb | c'abg d'2d2 | gabc' bgc'a | d'2d2 g3 :|
|: g | d'2d2 g2G2 | d'2d2 g3d | g2g2 a2a2 | d'2a2 d3 :|

